X:220
T:Steirische Jodler und Taenze Nr. 1 - 48 (18.)
C:traditionell
A:Salzkammergut
S:MIDI erhalten von Christian Amon. Nach einer kopie im besitz von Johann Stoeckl eines manuscriptes. Stoeckl(zitiert von Amon): "diese sammlung wurde 1935 im hause der familie Hohenlohe-Schillingfuerst gefunden. Sie wurde von einem der beiden brueder Steinegger 1866 verfasst. Die originale sind im Ausseer Kammerhofmuseum".
M:3/4
L:1/8
K:G
V:1
gd b3 g | fd c'd f2 | fd c'b c'f | gd bd g2 |\
gd b3 g | fd c'd f2 | fd c'b c'f | g4 |*
V:2
bg d'3 b | af e'f a2 | af e'd' e'a | bg d'g b2 |\
bg d'3 b | af e'f a2 | af e'd' e'a | b4 |*
